img/02.svg

<svg width="96" height="96" viewBox="0 0 96 96" fill="none" xmlns="http://www.w3.org/2000/svg">
<g clip-path="url(#clip0_0_3252)">
<circle cx="48" cy="48" r="48" fill="#FCB72B"/>
<path d="M39.6684 48.6C39.6684 48.056 39.8684 47.584 40.2684 47.184C40.6684 46.784 41.1404 46.584 41.6844 46.584C42.2284 46.584 42.7004 46.784 43.1004 47.184C43.5004 47.584 43.7004 48.056 43.7004 48.6C43.7004 49.144 43.5004 49.616 43.1004 50.016C42.7004 50.416 42.2284 50.616 41.6844 50.616C41.1404 50.616 40.6684 50.416 40.2684 50.016C39.8684 49.616 39.6684 49.144 39.6684 48.6ZM35.4924 46.728C35.4924 44.552 36.0364 42.864 37.1244 41.664C38.2284 40.464 39.7484 39.864 41.6844 39.864C43.6204 39.864 45.1324 40.464 46.2204 41.664C47.3244 42.864 47.8764 44.552 47.8764 46.728V50.472C47.8764 52.712 47.3244 54.416 46.2204 55.584C45.1324 56.752 43.6204 57.336 41.6844 57.336C39.7484 57.336 38.2284 56.752 37.1244 55.584C36.0364 54.416 35.4924 52.712 35.4924 50.472V46.728ZM41.6844 54.456C42.2604 54.456 42.7404 54.368 43.1244 54.192C43.5084 54 43.8204 53.736 44.0604 53.4C44.3004 53.064 44.4684 52.664 44.5644 52.2C44.6604 51.736 44.7084 51.224 44.7084 50.664V46.536C44.7084 46.008 44.6524 45.512 44.5404 45.048C44.4284 44.584 44.2524 44.184 44.0124 43.848C43.7724 43.512 43.4604 43.248 43.0764 43.056C42.6924 42.848 42.2284 42.744 41.6844 42.744C41.1404 42.744 40.6764 42.848 40.2924 43.056C39.9084 43.248 39.5964 43.512 39.3564 43.848C39.1164 44.184 38.9404 44.584 38.8284 45.048C38.7164 45.512 38.6604 46.008 38.6604 46.536V50.664C38.6604 51.224 38.7084 51.736 38.8044 52.2C38.9004 52.664 39.0684 53.064 39.3084 53.4C39.5484 53.736 39.8604 54 40.2444 54.192C40.6284 54.368 41.1084 54.456 41.6844 54.456ZM61.3323 53.976V57H49.5243V53.688C49.5243 52.808 49.6523 52.056 49.9083 51.432C50.1803 50.808 50.5563 50.28 51.0363 49.848C51.5323 49.416 52.1243 49.064 52.8123 48.792C53.5003 48.504 54.2763 48.264 55.1403 48.072C55.7803 47.928 56.3003 47.768 56.7003 47.592C57.1163 47.4 57.4443 47.192 57.6843 46.968C57.9243 46.728 58.0843 46.472 58.1643 46.2C58.2603 45.912 58.3083 45.592 58.3083 45.24C58.3083 44.568 58.0603 44.008 57.5643 43.56C57.0843 43.112 56.4123 42.888 55.5483 42.888C54.6363 42.888 53.9083 43.168 53.3643 43.728C52.8203 44.272 52.5483 45.032 52.5483 46.008V47.064H49.3803V45.72C49.3803 44.936 49.5163 44.192 49.7883 43.488C50.0763 42.768 50.4763 42.144 50.9883 41.616C51.5163 41.072 52.1563 40.648 52.9083 40.344C53.6603 40.024 54.5083 39.864 55.4523 39.864C56.4603 39.864 57.3403 40.016 58.0923 40.32C58.8443 40.608 59.4683 40.992 59.9643 41.472C60.4763 41.952 60.8523 42.512 61.0923 43.152C61.3483 43.776 61.4763 44.424 61.4763 45.096V45.384C61.4763 46.792 61.0763 47.96 60.2763 48.888C59.4923 49.816 58.2043 50.488 56.4123 50.904C55.6603 51.08 55.0363 51.264 54.5403 51.456C54.0603 51.632 53.6843 51.832 53.4123 52.056C53.1403 52.28 52.9483 52.528 52.8363 52.8C52.7403 53.056 52.6923 53.352 52.6923 53.688V53.976H61.3323Z" fill="#495567"/>
</g>
<defs>
<clipPath id="clip0_0_3252">
<rect width="96" height="96" fill="white"/>
</clipPath>
</defs>
</svg>

<svg xmlns="http://www.w3.org/2000/svg" width="96" height="96" fill="none"><g clip-path="url(#a)"><circle cx="48" cy="48" r="48" fill="#FCB72B"/><path fill="#495567" d="M39.668 48.6c0-.544.2-1.016.6-1.416.4-.4.872-.6 1.416-.6.544 0 1.016.2 1.416.6.4.4.6.872.6 1.416 0 .544-.2 1.016-.6 1.416-.4.4-.872.6-1.416.6-.544 0-1.016-.2-1.416-.6-.4-.4-.6-.872-.6-1.416Zm-4.176-1.872c0-2.176.544-3.864 1.632-5.064 1.104-1.2 2.624-1.8 4.56-1.8 1.936 0 3.448.6 4.536 1.8 1.104 1.2 1.656 2.888 1.656 5.064v3.744c0 2.24-.552 3.944-1.656 5.112-1.088 1.168-2.6 1.752-4.536 1.752-1.936 0-3.456-.584-4.56-1.752-1.088-1.168-1.632-2.872-1.632-5.112v-3.744Zm6.192 7.728c.576 0 1.056-.088 1.44-.264.384-.192.696-.456.936-.792.24-.336.408-.736.504-1.2.096-.464.144-.976.144-1.536v-4.128c0-.528-.056-1.024-.168-1.488a3.423 3.423 0 0 0-.528-1.2c-.24-.336-.552-.6-.936-.792-.384-.208-.848-.312-1.392-.312-.544 0-1.008.104-1.392.312a2.507 2.507 0 0 0-.936.792c-.24.336-.416.736-.528 1.2-.112.464-.168.96-.168 1.488v4.128c0 .56.048 1.072.144 1.536.096.464.264.864.504 1.2.24.336.552.6.936.792.384.176.864.264 1.44.264Zm19.648-.48V57H49.524v-3.312c0-.88.128-1.632.384-2.256a4.54 4.54 0 0 1 1.128-1.584 6.078 6.078 0 0 1 1.776-1.056 13.774 13.774 0 0 1 2.328-.72c.64-.144 1.16-.304 1.56-.48.416-.192.744-.4.984-.624.24-.24.4-.496.48-.768.096-.288.144-.608.144-.96a2.17 2.17 0 0 0-.744-1.68c-.48-.448-1.152-.672-2.016-.672-.912 0-1.64.28-2.184.84-.544.544-.816 1.304-.816 2.28v1.056H49.38V45.72c0-.784.136-1.528.408-2.232a5.694 5.694 0 0 1 1.2-1.872 5.52 5.52 0 0 1 1.92-1.272c.752-.32 1.6-.48 2.544-.48 1.008 0 1.888.152 2.64.456.752.288 1.376.672 1.872 1.152.512.48.888 1.04 1.128 1.68.256.624.384 1.272.384 1.944v.288c0 1.408-.4 2.576-1.2 3.504-.784.928-2.072 1.6-3.864 2.016-.752.176-1.376.36-1.872.552-.48.176-.856.376-1.128.6a1.918 1.918 0 0 0-.576.744 2.521 2.521 0 0 0-.144.888v.288h8.64Z"/></g><defs><clipPath id="a"><path fill="#fff" d="M0 0h96v96H0z"/></clipPath></defs></svg>
